svgs/solid/battery-bolt.svg

<svg xmlns="http://www.w3.org/2000/svg" viewBox="0 0 576 512"><!--! Font Awesome Pro 6.2.0 by @fontawesome - https://fontawesome.com License - https://fontawesome.com/license (Commercial License) Copyright 2022 Fonticons, Inc. --><path d="M365.7 160c6.6-22.2-1.1-46.6-20.1-60.8c-1.5-1.2-3.1-2.2-4.7-3.2H464c44.2 0 80 35.8 80 80v16c17.7 0 32 14.3 32 32v64c0 17.7-14.3 32-32 32v16c0 44.2-35.8 80-80 80H244.9c2.3-1.4 4.6-3 6.7-4.8L323.5 352H464c8.8 0 16-7.2 16-16V176c0-8.8-7.2-16-16-16H365.7zM80 416c-44.2 0-80-35.8-80-80V176c0-44.2 35.8-80 80-80H283.1c-2.3 1.4-4.6 3-6.7 4.8L204.5 160H80c-8.8 0-16 7.2-16 16V336c0 8.8 7.2 16 16 16h82.3c-6.6 22.2 1.1 46.6 20.1 60.8c1.5 1.2 3.1 2.2 4.7 3.2H80zM321.6 131.2c5.9 4.4 8 12.3 5.1 19.1L288.3 240H352c6.8 0 12.8 4.2 15.1 10.6s.3 13.5-4.9 17.8l-136 112c-5.7 4.7-13.9 4.9-19.8 .4s-8-12.3-5.1-19.1L239.7 272H176c-6.8 0-12.8-4.2-15.1-10.6s-.3-13.5 4.9-17.8l136-112c5.7-4.7 13.9-4.9 19.8-.4z"/></svg>

<svg xmlns="http://www.w3.org/2000/svg" viewBox="0 0 576 512"><!--! Font Awesome Pro 6.1.2 by @fontawesome - https://fontawesome.com License - https://fontawesome.com/license (Commercial License) Copyright 2022 Fonticons, Inc. --><path d="M365.7 160C372.3 137.8 364.5 113.4 345.6 99.2C344.1 98.04 342.5 96.98 340.8 96H464C508.2 96 544 131.8 544 176V192C561.7 192 576 206.3 576 224V288C576 305.7 561.7 320 544 320V336C544 380.2 508.2 416 464 416H244.9C247.2 414.6 249.4 413 251.6 411.2L323.5 352H464C472.8 352 480 344.8 480 336V176C480 167.2 472.8 160 464 160H365.7zM0 336V176C0 131.8 35.82 96 80 96H283.1C280.8 97.41 278.6 98.1 276.4 100.8L204.5 160H80C71.16 160 64 167.2 64 176V336C64 344.8 71.16 352 80 352H162.3C155.7 374.2 163.5 398.6 182.4 412.8C183.9 413.1 185.5 415 187.2 416H80C35.82 416 .0003 380.2 .0003 336H0zM321.6 131.2C327.5 135.6 329.6 143.5 326.7 150.3L288.3 240H352C358.8 240 364.8 244.2 367.1 250.6C369.3 256.1 367.4 264.1 362.2 268.4L226.2 380.4C220.5 385 212.3 385.2 206.4 380.8C200.5 376.4 198.4 368.5 201.3 361.7L239.7 271.1H176C169.2 271.1 163.2 267.8 160.9 261.4C158.7 255 160.6 247.9 165.8 243.6L301.8 131.6C307.5 126.1 315.7 126.8 321.6 131.2V131.2z"/></svg>
